X:1
T:Title
%%score 1 2
L:1/8
Q:1/4=100
M:2/2
K:G
V:1 treble nm="Soprano"
V:2 bass nm="Continuo"
V:1
"^Sawney is a bonny lad""^Henry Purcell\n(1659-1695)" G3 B (AF) (ED) | (dB)(AG) e3 d | %2
w: Saw- ney is * a *|bon- ny, bon- ny lad, But|
w: When a- nent * your *|love * you * come, Ah!|
 (d/e/ f2) e (ed) (cB) |[M:2/2] A6 D2 | G3 B (AF) (ED) | (dB) (AG) e3 d | (^cd) (ed) (d/e/f) (ed) | %7
w: Saw\- * * ney kens * it *|well; And|Saw- ney might * a *|boon * have * had, But|Saw\- * ney * loves * * to *|
w: Saw\- * * ney, were * you *|true? What|tho' I seem * to *|frown * and * gloom, I|ne'er * cou'd * gang * * from *|
 d6 d2 | A3 B c3 B | (AG) (FE) B2 (^c^d) | (ef) (gf) (Be) (fe) | e6 |: g2 | e3 d (ef) (gB) | %14
w: tell: He|weens that I mun|love * him * soon, Gin *|lo\- * vers * now * are *|rare;|But|I'd as leif * have *|
w: you: Yet|still my tongue, do|what * I * can, With *|mi- * ckle * woe * de- *|nies;|Wa's|me, when once * we *|
 A3 G (AB) (cF) | (GA) (BA) (Bd) (ed) | g6 :| %17
w: none, as one * Whom *|twen\- * ty, * twen\- * ty *|share.|
w: like a man, * It *|boots * not * to * be *|wise.|
V:2
 G,,4 D,4 | B,,4 C,2 B,,2 | A,,2 G,,2 F,,2 G,,2 |[M:2/2] D,3 E, D,C,B,,A,, | G,,4 D,4 | %5
 B,,4 C,2 B,,2 | A,,2 =F,,2 G,,2 A,,2 | D,6 z2 | z2 D,2 A,,2 B,,2 | C,4 B,,2 A,,2 | %10
 G,,2 A,,2 B,,4 | E,6 |: B,2 | C2 B,2 A,2 G,2 | F,2 E,2 D,2 C,2 | B,,2 C,2 D,4 | G,,6 :| %17

